Images/linkedin-icon.svg

<svg width="39" height="39" viewBox="0 0 39 39" fill="none" xmlns="http://www.w3.org/2000/svg">
<path d="M19.2 0C8.596 0 0 8.59604 0 19.2001C0 29.8041 8.596 38.4002 19.2 38.4002C29.804 38.4002 38.4 29.8041 38.4 19.2001C38.4 8.59604 29.804 0 19.2 0ZM14.5 27.1581H10.612V14.6461H14.5V27.1581ZM12.532 13.1101C11.304 13.1101 10.51 12.2401 10.51 11.1641C10.51 10.066 11.328 9.22204 12.582 9.22204C13.836 9.22204 14.604 10.066 14.628 11.1641C14.628 12.2401 13.836 13.1101 12.532 13.1101ZM28.7 27.1581H24.812V20.2241C24.812 18.6101 24.248 17.5141 22.842 17.5141C21.768 17.5141 21.13 18.2561 20.848 18.9701C20.744 19.2241 20.718 19.5841 20.718 19.9421V27.1561H16.828V18.6361C16.828 17.0741 16.778 15.7681 16.726 14.6441H20.104L20.282 16.3821H20.36C20.872 15.5661 22.126 14.3621 24.224 14.3621C26.782 14.3621 28.7 16.0761 28.7 19.7601V27.1581Z" fill="black"/>
</svg>

<svg xmlns="http://www.w3.org/2000/svg" width="39" height="39" fill="none" xmlns:v="https://vecta.io/nano"><path d="M19.2 0C8.596 0 0 8.596 0 19.2s8.596 19.2 19.2 19.2 19.2-8.596 19.2-19.2S29.804 0 19.2 0zm-4.7 27.158h-3.888V14.646H14.5v12.512zM12.532 13.11c-1.228 0-2.022-.87-2.022-1.946 0-1.098.818-1.942 2.072-1.942s2.022.844 2.046 1.942c0 1.076-.792 1.946-2.096 1.946zM28.7 27.158h-3.888v-6.934c0-1.614-.564-2.71-1.97-2.71-1.074 0-1.712.742-1.994 1.456-.104.254-.13.614-.13.972v7.214h-3.89v-8.52a83.59 83.59 0 0 0-.102-3.992h3.378l.178 1.738h.078c.512-.816 1.766-2.02 3.864-2.02 2.558 0 4.476 1.714 4.476 5.398v7.398z" fill="#000"/></svg>
